X: 26138
T: McGuire's Welcome To Fermanagh
R: reel
M: 4/4
K: Amajor
ABcB AFdF|EC~C2 ECB,C|A,CEC A,DAF|E2 Ac BA FE|
A2 cB AFdF|E3F ECB,C|A,2EA, CE ef|1 edcB A3E:|2 edcB A2 cd||
|:e3f ecBA|Ee cA GAce|f3 a fd~d2|FAdf Adfa|
e3f ecBc|AecA GAce|d2 fd adfd|1 edcB A2af:|2 edcB A2z2||

